svg/u1f6ba.svg

<svg viewBox="0 0 128 128" xmlns="http://www.w3.org/2000/svg">
  <g>
    <path d="M116,4H12c-4.42,0-8,3.58-8,8v104c0,4.42,3.58,8,8,8h104c4.42,0,8-3.58,8-8V12 C124,7.58,120.42,4,116,4z" fill="#194FA5"/>
    <path d="M109.7,4H11.5C7.37,4.03,4.03,7.37,4,11.5v97.9c-0.01,4.14,3.34,7.49,7.48,7.5c0.01,0,0.01,0,0.02,0 h98.1c4.14,0.01,7.49-3.34,7.5-7.48c0-0.01,0-0.01,0-0.02V11.5c0.09-4.05-3.13-7.41-7.18-7.5C109.85,4,109.77,4,109.7,4z" fill="#2262DD"/>
    <path d="M39.7,12.9c0-2.3-1.6-3-10.8-2.7c-7.7,0.3-11.5,1.2-13.8,4 c-1.9,2.3-2.3,5.6-2.6,8.4c-0.2,2.2-2.2,14.9,3.5,11.2c0.68-0.45,1.23-1.07,1.6-1.8c1.2-2.1,1.9-3.5,3.3-5.6 C26.2,17.8,39.7,15.9,39.7,12.9z" opacity="0.65" fill="#68ABE6" enable-background="new "/>
    <path d="M39.7,12.9c0-2.3-1.6-3-10.8-2.7c-7.7,0.3-11.5,1.2-13.8,4 c-1.9,2.3-2.3,5.6-2.6,8.4c-0.2,2.2-2.2,14.9,3.5,11.2c0.68-0.45,1.23-1.07,1.6-1.8c1.2-2.1,1.9-3.5,3.3-5.6 C26.2,17.8,39.7,15.9,39.7,12.9z" opacity="0.3" fill="#68ABE6" enable-background="new "/>
  </g>
  <g>
    <circle cx="62.38" cy="25.47" r="9.35" fill="#FFFFFF"/>
    <path d="M83.73,68.08l-8.67-25.25c-1.13-3.49-6.4-6.13-12.74-6.13c-6.32,0-11.58,2.63-12.74,6.1l-8.56,25.29 c-0.59,1.75,0.3,3.66,1.98,4.27c1.68,0.61,3.52-0.31,4.1-2.06l5.15-16.47c0.09-0.28,0.5-0.22,0.5,0.08v5.35h-0.02l-5.94,24.43 c-0.26,1.06,0.51,2.09,1.56,2.09h3.59c0.45,0,0.8,0.37,0.8,0.84v14.9c0,2.19,1.54,4.14,3.64,4.35c2.4,0.23,4.42-1.72,4.42-4.17 V87.44c0-0.93,0.72-1.67,1.61-1.67c0.89,0,1.61,0.75,1.61,1.67v14.06c0,2.19,1.54,4.14,3.64,4.35c2.4,0.23,4.42-1.72,4.42-4.17 V86.61c0-0.46,0.36-0.84,0.8-0.84h3.54c1.05,0,1.82-1.03,1.56-2.09l-5.92-24.34v-5.42c0-0.3,0.4-0.36,0.5-0.08l5.07,16.45 c0.59,1.75,2.42,2.66,4.1,2.06C83.43,71.74,84.32,69.83,83.73,68.08z" fill="#FFFFFF"/>
  </g>
</svg>

<svg viewBox="0 0 128 128" xmlns="http://www.w3.org/2000/svg">
  <defs/>
  <path d="M116,4 L12,4 C7.58,4 4,7.58 4,12 L4,116 C4,120.42 7.58,124 12,124 L116,124 C120.42,124 124,120.42 124,116 L124,12 C124,7.58 120.42,4 116,4 Z" fill="#194FA5"/>
  <path d="M109.7,4 L11.5,4 C7.37,4.03 4.03,7.37 4,11.5 L4,109.4 C3.99,113.54 7.34,116.89 11.48,116.9 C11.49,116.9 11.49,116.9 11.5,116.9 L109.6,116.9 C113.74,116.91 117.09,113.56 117.1,109.42 C117.1,109.41 117.1,109.41 117.1,109.4 L117.1,11.5 C117.19,7.45 113.97,4.09 109.92,4 C109.85,4 109.77,4 109.7,4 Z" fill="#2262DD"/>
  <path d="M39.7,12.9 C39.7,10.6 38.1,9.9 28.9,10.2 C21.2,10.5 17.4,11.4 15.1,14.2 C13.2,16.5 12.8,19.8 12.5,22.6 C12.3,24.8 10.3,37.5 16,33.8 C16.68,33.35 17.23,32.73 17.6,32 C18.8,29.9 19.5,28.5 20.9,26.4 C26.2,17.8 39.7,15.9 39.7,12.9 Z" fill="#68ABE6" opacity="0.65"/>
  <path d="M39.7,12.9 C39.7,10.6 38.1,9.9 28.9,10.2 C21.2,10.5 17.4,11.4 15.1,14.2 C13.2,16.5 12.8,19.8 12.5,22.6 C12.3,24.8 10.3,37.5 16,33.8 C16.68,33.35 17.23,32.73 17.6,32 C18.8,29.9 19.5,28.5 20.9,26.4 C26.2,17.8 39.7,15.9 39.7,12.9 Z" fill="#68ABE6" opacity="0.3"/>
  <path d="M71.73,25.47 A9.35 9.35 0 1 1 53.03,25.47 A9.35 9.35 0 1 1 71.73,25.47 Z" fill="#FFFFFF"/>
  <path d="M83.73,68.08 L75.06,42.83 C73.93,39.34 68.66,36.7 62.32,36.7 C56,36.7 50.74,39.33 49.58,42.8 L41.02,68.09 C40.43,69.84 41.32,71.75 43,72.36 C44.68,72.97 46.52,72.05 47.1,70.3 L52.25,53.83 C52.34,53.55 52.75,53.61 52.75,53.91 L52.75,59.26 L52.73,59.26 L46.79,83.69 C46.53,84.75 47.3,85.78 48.35,85.78 L51.94,85.78 C52.39,85.78 52.74,86.15 52.74,86.62 L52.74,101.52 C52.74,103.71 54.28,105.66 56.38,105.87 C58.78,106.1 60.8,104.15 60.8,101.7 L60.8,87.44 C60.8,86.51 61.52,85.77 62.41,85.77 C63.3,85.77 64.02,86.52 64.02,87.44 L64.02,101.5 C64.02,103.69 65.56,105.64 67.66,105.85 C70.06,106.08 72.08,104.13 72.08,101.68 L72.08,86.61 C72.08,86.15 72.44,85.77 72.88,85.77 L76.42,85.77 C77.47,85.77 78.24,84.74 77.98,83.68 L72.06,59.34 L72.06,53.92 C72.06,53.62 72.46,53.56 72.56,53.84 L77.63,70.29 C78.22,72.04 80.05,72.95 81.73,72.35 C83.43,71.74 84.32,69.83 83.73,68.08 Z" fill="#FFFFFF"/>
</svg>
